svgs/duotone/bacterium.svg

<svg xmlns="http://www.w3.org/2000/svg" viewBox="0 0 576 512"><!--! Font Awesome Pro 6.3.0 by @fontawesome - https://fontawesome.com License - https://fontawesome.com/license (Commercial License) Copyright 2023 Fonticons, Inc. --><defs><style>.fa-secondary{opacity:.4}</style></defs><path class="fa-primary" d="M240.1 320c0 26.51-21.5 48-48.01 48S144 346.5 144 320s21.5-48 48.01-48S240.1 293.5 240.1 320z"/><path class="fa-secondary" d="M543 102.9c-3.711-12.51-16.92-19.61-29.53-15.92l-15.12 4.48c-11.05-20.65-27.98-37.14-48.5-47.43l3.783-14.46c3.309-12.64-4.299-25.55-16.99-28.83c-12.76-3.309-25.67 4.295-28.96 16.92l-3.76 14.37c-7.344-.25-14.81 .2031-22.33 1.469C366.5 36.05 351.7 39.73 337.3 43.94l-4.301-12.03c-4.406-12.3-17.1-18.81-30.34-14.34c-12.35 4.371-18.8 17.88-14.41 30.2l4.303 12.04c-20.6 8.889-40.16 19.64-58.69 31.83L225.9 81.01C217.1 70.56 203.1 68.42 192.6 76.21C182.1 84.03 179.9 98.83 187.8 109.3l7.975 10.63C178.8 134.3 163.3 150.3 149.1 167.4L138 159.3C127.5 151.6 112.6 153.9 104.8 164.5c-7.748 10.54-5.428 25.33 5.164 33.03l11.09 8.066C109.2 224.1 98.79 243.7 90.18 264.3l-12.93-4.431c-12.45-4.248-25.92 2.293-30.18 14.65C42.78 286.9 49.38 300.3 61.78 304.6l13.05 4.474c-3.717 13.27-6.978 26.71-9.28 40.53c-1.432 8.592-1.63 17.07-1.112 25.41l-15.45 4.566c-12.59 3.709-19.74 16.87-16 29.38c3.062 10.28 12.51 16.91 22.75 16.91c2.242 0 4.514-.3066 6.771-.9844l15.02-4.441c10.78 20.21 27.57 36.73 48.53 47.24l-3.852 14.75c-3.293 12.63 4.33 25.53 17.02 28.83C141.2 511.8 143.2 512 145.2 512c10.56 0 20.19-7.049 22.98-17.7l3.816-14.63c1.369 .0508 2.868 .3418 4.231 .3418c22.18 0 42.99-6.896 60.78-18.51l11.45 11.74c4.654 4.771 10.84 7.172 17.04 7.172c5.969 0 11.92-2.217 16.54-6.68c9.416-9.096 9.633-24.06 .4941-33.43l-12.19-12.5c7.805-12.29 13.56-26.13 16.11-41.4c1.186-7.107 3.082-13.95 5.158-20.7l12.04 5.635c3.264 1.523 6.695 2.246 10.08 2.246c8.922 0 17.46-5.018 21.51-13.59c5.582-11.8 .4785-25.89-11.4-31.45l-11.73-5.486c.8945-1.318 1.592-2.773 2.523-4.062c3.186-4.424 6.844-8.434 10.46-12.49c4.852-5.459 10.05-10.53 15.6-15.28c4.275-3.627 8.572-7.221 13.23-10.4c1.494-1.031 3.1-1.896 4.629-2.877l5.23 11.81c3.928 8.834 12.63 14.1 21.75 14.1c3.201 0 6.449-.6465 9.572-2c11.1-5.279 17.44-19.22 12.15-31.18L401.9 258.5c5.438-1.512 10.86-3.078 16.52-4.021c16.8-2.797 31.88-9.459 45.02-18.54l13.33 12.02c4.547 4.109 10.25 6.125 15.94 6.125c6.463 0 12.91-2.617 17.6-7.773c8.814-9.68 8.072-24.62-1.654-33.38l-12.95-11.68c11.32-18.9 16.99-41.02 15.52-64.23l15.81-4.681C539.6 128.6 546.7 115.4 543 102.9zM192 368c-26.51 0-48.01-21.49-48.01-48s21.5-48 48.01-48S240.1 293.5 240.1 320S218.6 368 192 368zM272 232c-13.25 0-23.92-10.75-23.92-24c0-13.26 10.67-23.1 23.92-23.1c13.26 0 23.1 10.74 23.1 23.1C295.1 221.3 285.3 232 272 232z"/></svg>

<svg xmlns="http://www.w3.org/2000/svg" viewBox="0 0 576 512"><!-- Font Awesome Pro 6.0.0-alpha2 by @fontawesome - https://fontawesome.com License - https://fontawesome.com/license (Commercial License) --><defs><style>.fa-secondary{opacity:.4}</style></defs><path d="M543.008 102.928C539.297 90.414 526.092 83.318 513.475 87.012L498.354 91.492C487.307 70.842 470.373 54.348 449.854 44.066L453.637 29.602C456.945 16.965 449.338 4.053 436.645 0.773C423.889 -2.535 410.977 5.068 407.684 17.689L403.924 32.062C396.58 31.812 389.111 32.266 381.594 33.531C366.451 36.055 351.734 39.727 337.256 43.943L332.955 31.91C328.549 19.613 314.959 13.104 302.619 17.566C290.266 21.938 283.818 35.451 288.209 47.764L292.512 59.809C271.908 68.697 252.356 79.453 233.822 91.639L225.852 81.01C217.996 70.559 203.121 68.42 192.608 76.207C182.094 84.025 179.943 98.832 187.783 109.299L195.758 119.932C178.826 134.336 163.268 150.26 149.065 167.367L138.027 159.336C127.451 151.609 112.592 153.902 104.846 164.477C97.098 175.02 99.418 189.811 110.01 197.508L121.102 205.574C109.209 224.139 98.793 243.736 90.176 264.32L77.246 259.889C64.799 255.641 51.33 262.182 47.065 274.541C42.781 286.885 49.383 300.338 61.783 304.584L74.834 309.059C71.117 322.326 67.834 335.777 65.531 349.594C64.1 358.186 63.924 366.654 64.442 374.99L48.996 379.557C36.41 383.266 29.252 396.426 32.992 408.939C36.055 419.221 45.502 425.854 55.738 425.854C57.981 425.854 60.252 425.547 62.51 424.869L77.529 420.428C88.309 440.635 105.102 457.162 126.061 467.668L122.209 482.418C118.916 495.053 126.539 507.951 139.233 511.246C141.227 511.754 143.236 512 145.217 512C155.777 512 165.41 504.951 168.193 494.299L172.01 479.672C173.379 479.723 174.777 480.016 176.141 480.016C198.322 480.016 219.234 473.117 237.02 461.5L248.471 473.244C253.125 478.016 259.311 480.416 265.51 480.416C271.479 480.416 277.432 478.199 282.055 473.736C291.471 464.641 291.688 449.68 282.549 440.307L270.361 427.809C278.166 415.514 283.926 401.676 286.469 386.406C287.654 379.299 289.551 372.457 291.627 365.703L303.67 371.338C306.934 372.861 310.365 373.584 313.752 373.584C322.674 373.584 331.209 368.566 335.26 359.994C340.842 348.189 335.738 334.105 323.863 328.549L312.137 323.062C313.031 321.744 313.729 320.289 314.66 319C317.846 314.576 321.504 310.566 325.117 306.512C329.969 301.053 335.164 295.982 340.713 291.23C344.988 287.604 349.285 284.01 353.943 280.832C355.438 279.801 357.043 278.936 358.572 277.955L363.803 289.764C367.731 298.598 376.436 303.861 385.557 303.861C388.758 303.861 392.006 303.215 395.129 301.861C407.127 296.582 412.57 282.637 407.281 270.678L401.924 258.574C407.361 257.062 412.748 255.412 418.406 254.469C435.207 251.672 450.285 245.01 463.424 235.928L476.752 247.945C481.299 252.055 487.004 254.07 492.693 254.07C499.156 254.07 505.606 251.453 510.289 246.297C519.104 236.617 518.361 221.672 508.635 212.914L495.686 201.238C507.004 182.336 512.678 160.217 511.209 137.006L527.02 132.324C539.59 128.6 546.748 115.439 543.008 102.928ZM192 368C165.49 368 144 346.51 144 320S165.49 272 192 272S240 293.49 240 320S218.51 368 192 368ZM272 232C258.746 232 248 221.254 248 208C248 194.744 258.746 184 272 184C285.256 184 296 194.744 296 208C296 221.254 285.256 232 272 232Z" class="fa-secondary"/><path d="M240 320C240 346.51 218.51 368 192 368S144 346.51 144 320S165.49 272 192 272S240 293.49 240 320Z" class="fa-primary"/></svg>
